X:172
T:Dandy Dancer #1, The
C:Joe Buchanan's Scottish Tome - Page 266.3
I:266 3
Z:Carl Allison
R:Jig
L:1/8
M:6/8
K:A
e/d/ | c2 A AGA | EAA cBA | dBB fBB | gfe dcB |
c2 A AGA | EAA cBA | dcB gfg | a3 a2 :|
e | aec Ace | agf edc | dBB fBB | gfe dcB |
[1 aec Ace | ggf edc | dcB gfg | a3 a2 :|
[2 c2 A AGA | EAA cBA | dcB gfg | a3 a2 |]

